X: 171
P: Longways for as many as will
M: C|
L: 1/8
K: C
[|\
c2 B2 c2 B>A | G>F E>F G2 E2 |\
c>d e2 c>d e2 | c>d e>f d>B A>G |
c>d e2 c>d e2 | c>d e>f g3 a |\
g>f e>d c>B A>e | f2 A>e f3 e |\
f>e d>c B>A GF/E/ F2 G2 c4 |]

